sprites/streets-v8/_svg/ice-cream-15.svg

<?xml version="1.0" encoding="UTF-8" standalone="no"?>
<svg
   xmlns:dc="http://purl.org/dc/elements/1.1/"
   xmlns:cc="http://creativecommons.org/ns#"
   xmlns:rdf="http://www.w3.org/1999/02/22-rdf-syntax-ns#"
   xmlns:svg="http://www.w3.org/2000/svg"
   xmlns="http://www.w3.org/2000/svg"
   id="svg2"
   width="23"
   height="23"
   viewBox="0 0 23 23"
   version="1.1">
  <metadata
     id="metadata14">
    <rdf:RDF>
      <cc:Work
         rdf:about="">
        <dc:format>image/svg+xml</dc:format>
        <dc:type
           rdf:resource="http://purl.org/dc/dcmitype/StillImage" />
      </cc:Work>
    </rdf:RDF>
  </metadata>
  <defs
     id="defs12" />
  <ellipse
     id="ellipse4"
     ry="11.5"
     rx="11.5"
     cy="11.5"
     cx="11.5"
     style="fill:#ffffff;stroke:none;" />
  <ellipse
     id="ellipse6"
     ry="10.5"
     rx="10.5"
     cy="11.5"
     cx="11.5"
     style="fill:#a9a199;stroke:none;" />
  <g
     id="g8"
     transform="translate(5,4)">
    <metadata     id="metadata23"><rdf:RDF><cc:Work         rdf:about=""><dc:format>image/svg+xml</dc:format><dc:type           rdf:resource="http://purl.org/dc/dcmitype/StillImage" /><dc:title /></cc:Work></rdf:RDF></metadata><defs     id="defs21" /><path     id="rect3349"     d="m 6.3235295,0.91574958 c -0.4888236,0 -0.8823531,0.39352922 -0.8823531,0.88235282 0,0.4888236 0.3935295,0.882353 0.8823531,0.882353 l -1.1764707,0 c -0.4888236,0 -0.8823529,0.3935294 -0.8823529,0.8823528 0,0.4888236 0.3935293,0.8823529 0.8823529,0.8823529 l -1.1764706,0 c -0.4888236,0 -0.8823529,0.3935295 -0.8823529,0.8823531 0,0.4888235 0.3935293,0.882353 0.8823529,0.882353 l 5.2941178,0 c 0.4888243,0 0.882353,-0.3935295 0.882353,-0.882353 0,-0.4888236 -0.3935287,-0.8823531 -0.882353,-0.8823531 l -1.1764706,0 c 0.4888236,0 0.8823529,-0.3935293 0.8823529,-0.8823529 0,-0.4888234 -0.3935293,-0.8823528 -0.8823529,-0.8823528 l -1.1764706,0 c 0.4888235,0 0.882353,-0.3935294 0.882353,-0.882353 0,-0.4888236 -0.3935295,-0.88235282 -0.882353,-0.88235282 z m -2.7941178,5.70189772 2e-7,1.7647057 0.8823529,0 0.8823529,4.411765 2.6470589,0 0.8823529,-4.411765 0.882353,0 -2e-7,-1.7647057 z"     style="opacity:1;fill:#ffffff;fill-opacity:1;stroke:none;stroke-width:1;stroke-linecap:round;stroke-linejoin:miter;stroke-miterlimit:4;stroke-dasharray:none;stroke-dashoffset:0;stroke-opacity:1" />
  </g>
</svg>

<?xml version="1.0" encoding="utf-8"?>
<!-- Generator: Adobe Illustrator 17.1.0, SVG Export Plug-In . SVG Version: 6.00 Build 0)  -->
<!DOCTYPE svg PUBLIC "-//W3C//DTD SVG 1.1//EN" "http://www.w3.org/Graphics/SVG/1.1/DTD/svg11.dtd">
<svg version="1.1" id="Layer_1" xmlns="http://www.w3.org/2000/svg" xmlns:xlink="http://www.w3.org/1999/xlink" x="0px" y="0px"
	 width="23px" height="23px" viewBox="0 0 23 23" enable-background="new 0 0 23 23" xml:space="preserve">
<ellipse id="ellipse4" fill="#FFFFFF" cx="11.5" cy="11.5" rx="11.5" ry="11.5"/>
<ellipse id="ellipse6" fill="#A9A199" cx="11.5" cy="11.5" rx="10.5" ry="10.5"/>
<g id="g8" transform="translate(5,4)">
	<path id="rect3349" fill="#FFFFFF" d="M6.3,0.9c-0.5,0-0.9,0.4-0.9,0.9s0.4,0.9,0.9,0.9H5.1c-0.5,0-0.9,0.4-0.9,0.9
		s0.4,0.9,0.9,0.9H4c-0.5,0-0.9,0.4-0.9,0.9S3.5,6.2,4,6.2h5.3c0.5,0,0.9-0.4,0.9-0.9S9.8,4.4,9.3,4.4H8.1C8.6,4.4,9,4.1,9,3.6
		S8.6,2.7,8.1,2.7H6.9c0.5,0,0.9-0.4,0.9-0.9S7.4,0.9,6.9,0.9H6.3z M3.5,6.6v1.8h0.9l0.9,4.4h2.6l0.9-4.4h0.9V6.6H3.5z"/>
</g>
</svg>
